src/dsmComponents/Icons/device-smartwatch-disconnected-24px.svg

<?xml version="1.0" encoding="UTF-8"?>
<svg width="23px" height="24px" viewBox="0 0 23 24" version="1.1" xmlns="http://www.w3.org/2000/svg" xmlns:xlink="http://www.w3.org/1999/xlink">
    <!-- Generator: Sketch 59.1 (86144) - https://sketch.com -->
    <title>device-smartwatch-disconnected-24px</title>
    <desc>Created with Sketch.</desc>
    <defs>
        <path d="M0.6409,3.655 C0.8539,3.402 1.2319,3.369 1.4849,3.582 L1.4849,3.582 L21.7749,20.607 C22.0289,20.82 22.0619,21.197 21.8489,21.451 L21.8489,21.451 L21.3489,22.048 C21.1359,22.302 20.7579,22.335 20.5049,22.122 L20.5049,22.122 L18.8629,20.745 C18.6639,20.832 18.4559,20.904 18.2359,20.945 L18.2359,20.945 L17.6619,23.243 C17.5509,23.687 17.1509,24 16.6919,24 L16.6919,24 L6.6919,24 C6.2329,24 5.8329,23.687 5.7209,23.243 L5.7209,23.243 L5.1469,20.945 C3.7529,20.687 2.6919,19.468 2.6919,18 L2.6919,18 L2.6919,7.175 L0.2139,5.096 C-0.0391,4.884 -0.0721,4.506 0.1399,4.252 L0.1399,4.252 Z M4.6919,8.854 L4.6919,18 C4.6919,18.551 5.1409,19 5.6919,19 L5.6919,19 L16.7839,19 L4.6919,8.854 Z M16.6284,0 C17.0874,0 17.4874,0.312 17.5984,0.757 L17.5984,0.757 L18.1734,3.055 C19.5674,3.313 20.6284,4.532 20.6284,6 L20.6284,6 L20.6284,9 L22.6284,9 L22.6284,15 L20.6284,15 L20.6284,16.539 L18.6284,14.861 L18.6284,6 C18.6284,5.449 18.1794,5 17.6284,5 L17.6284,5 L6.8764,5 L4.6954,3.17 C4.8234,3.128 4.9484,3.08 5.0834,3.055 L5.0834,3.055 L5.6584,0.757 C5.7694,0.312 6.1694,0 6.6284,0 L6.6284,0 Z" id="path-1"></path>
    </defs>
    <g id="Final" stroke="none" stroke-width="1" fill="none" fill-rule="evenodd">
        <g id="All-Nucleo-Icons" transform="translate(-609.000000, -2589.000000)">
            <g id="Solo/Nucleo/24px/device-smartwatch-disconnected" transform="translate(608.000000, 2589.000000)">
                <g id="watch-lost" transform="translate(1.000000, 0.000000)">
                    <g id="Group-5">
                        <g id="Colour/Default-Colour">
                            <mask id="mask-2" fill="white">
                                <use xlink:href="#path-1"></use>
                            </mask>
                            <use id="Mask" fill="#000000" xlink:href="#path-1"></use>
                            <g id="colour/neutral/chia" mask="url(#mask-2)" fill="#737373">
                                <g transform="translate(-21.000000, -20.000000)" id="Colour">
                                    <rect x="0" y="0" width="64" height="64"></rect>
                                </g>
                            </g>
                        </g>
                    </g>
                </g>
            </g>
        </g>
    </g>
</svg>

<svg width="23" height="24" xmlns="http://www.w3.org/2000/svg" xmlns:xlink="http://www.w3.org/1999/xlink"><defs><path d="M.64 3.655a.6.6 0 01.845-.073l20.29 17.025c.254.213.287.59.074.844l-.5.597a.598.598 0 01-.844.074l-1.642-1.377a2.885 2.885 0 01-.627.2l-.574 2.298a1 1 0 01-.97.757h-10a1 1 0 01-.971-.757l-.574-2.298A3.001 3.001 0 012.692 18V7.175L.214 5.096a.6.6 0 01-.074-.844zm4.052 5.199V18c0 .551.449 1 1 1h11.092L4.692 8.854zM16.628 0a1 1 0 01.97.757l.575 2.298A3.001 3.001 0 0120.628 6v3h2v6h-2v1.539l-2-1.678V6c0-.551-.449-1-1-1H6.876l-2.18-1.83c.127-.042.252-.09.387-.115L5.658.757A1 1 0 016.628 0z" id="device-smartwatch-disconnected-24px_svg__a"/></defs><use fill="#737373" xlink:href="#device-smartwatch-disconnected-24px_svg__a" fill-rule="evenodd"/></svg>
